libs/ui/packages/crypto-icons/src/svg/gABI.svg

<svg width="24" height="24" viewBox="0 0 24 24" fill="none">
<path fill-rule="evenodd" clip-rule="evenodd" d="M11.9998 22.5602C17.832 22.5602 22.56 17.8323 22.56 12.0002C22.56 6.16806 17.832 1.44019 11.9998 1.44019C8.45097 1.44019 5.31097 3.19077 3.39628 5.8755H7.3037C7.77027 5.8755 8.1485 6.25373 8.1485 6.7203C8.1485 7.18687 7.77027 7.5651 7.3037 7.5651H2.41342C2.22398 7.97388 2.05992 8.39682 1.92325 8.83188H13.5155C13.9821 8.83188 14.3603 9.21011 14.3603 9.67668C14.3603 10.1433 13.9821 10.5215 13.5155 10.5215H1.54243C1.47808 10.9807 1.44326 11.4494 1.43997 11.9256H5.56439C6.03096 11.9256 6.40919 12.3039 6.40919 12.7704C6.40919 13.237 6.03096 13.6152 5.56439 13.6152H1.56244C1.63266 14.0728 1.73226 14.5207 1.85923 14.9569H13.5155C13.9821 14.9569 14.3603 15.3351 14.3603 15.8017C14.3603 16.2683 13.9821 16.6465 13.5155 16.6465H2.51418C2.76388 17.1553 3.05332 17.6411 3.37845 18.0998H7.3037C7.77027 18.0998 8.1485 18.478 8.1485 18.9446C8.1485 19.4112 7.77027 19.7894 7.3037 19.7894H4.86931C6.74806 21.5102 9.25133 22.5602 11.9998 22.5602ZM15.8352 16.6465C15.3686 16.6465 14.9904 16.2683 14.9904 15.8017C14.9904 15.3351 15.3686 14.9569 15.8352 14.9569C16.3018 14.9569 16.68 15.3351 16.68 15.8017C16.68 16.2683 16.3018 16.6465 15.8352 16.6465ZM14.9904 9.67668C14.9904 10.1433 15.3686 10.5215 15.8352 10.5215C16.3018 10.5215 16.68 10.1433 16.68 9.67668C16.68 9.21011 16.3018 8.83188 15.8352 8.83188C15.3686 8.83188 14.9904 9.21011 14.9904 9.67668ZM8.64542 18.9501C8.64542 19.4167 9.02366 19.7949 9.49024 19.7949C9.95681 19.7949 10.335 19.4167 10.335 18.9501C10.335 18.4836 9.95681 18.1053 9.49024 18.1053C9.02366 18.1053 8.64542 18.4836 8.64542 18.9501ZM9.49024 7.5651C9.02366 7.5651 8.64542 7.18687 8.64542 6.7203C8.64542 6.25373 9.02366 5.8755 9.49024 5.8755C9.95681 5.8755 10.335 6.25373 10.335 6.7203C10.335 7.18687 9.95681 7.5651 9.49024 7.5651ZM9.52746 12.7704C9.52746 13.237 9.90569 13.6152 10.3723 13.6152H19.8736C20.3402 13.6152 20.7184 13.237 20.7184 12.7704C20.7184 12.3039 20.3402 11.9256 19.8736 11.9256H10.3723C9.90569 11.9256 9.52746 12.3039 9.52746 12.7704ZM7.96212 13.6152C7.49555 13.6152 7.11731 13.237 7.11731 12.7704C7.11731 12.3039 7.49555 11.9256 7.96212 11.9256C8.42869 11.9256 8.80693 12.3039 8.80693 12.7704C8.80693 13.237 8.42869 13.6152 7.96212 13.6152Z" fill="black"/>
<path d="M23.76 12C23.76 18.4949 18.4949 23.76 12 23.76C5.50513 23.76 0.24 18.4949 0.24 12C0.24 5.50513 5.50513 0.24 12 0.24C18.4949 0.24 23.76 5.50513 23.76 12Z" stroke="black" stroke-width="0.48"/>
</svg>

<svg width="24" height="24" viewBox="0 0 24 24" fill="none"><path fill="#000" fill-rule="evenodd" d="M12 22.56c5.832 0 10.56-4.728 10.56-10.56S17.832 1.44 12 1.44c-3.549 0-6.689 1.75-8.604 4.435h3.908a.845.845 0 0 1 0 1.69h-4.89q-.285.614-.49 1.267h11.592a.845.845 0 1 1 0 1.69H1.541q-.097.689-.102 1.404h4.124a.845.845 0 0 1 0 1.69H1.562q.106.686.297 1.34h11.657a.845.845 0 1 1 0 1.69H2.513q.377.765.864 1.454h3.926a.845.845 0 1 1 0 1.69H4.869A10.52 10.52 0 0 0 12 22.56m3.835-5.913a.845.845 0 1 1 0-1.69.845.845 0 0 1 0 1.69m-.845-6.97a.845.845 0 1 0 1.69 0 .845.845 0 0 0-1.69 0M8.645 18.95a.845.845 0 1 0 1.69 0 .845.845 0 0 0-1.69 0M9.49 7.565a.845.845 0 1 1 0-1.69.845.845 0 0 1 0 1.69m.037 5.205c0 .467.379.845.845.845h9.502a.845.845 0 1 0 0-1.69h-9.502a.845.845 0 0 0-.845.845m-1.565.845a.845.845 0 1 1 0-1.69.845.845 0 0 1 0 1.69" clip-rule="evenodd"/><path stroke="#000" stroke-width=".48" d="M23.76 12c0 6.495-5.265 11.76-11.76 11.76S.24 18.495.24 12 5.505.24 12 .24 23.76 5.505 23.76 12Z"/></svg>
